X:1
T:Title
%%score 1 2 3 4
L:1/8
Q:1/4=90
M:2/4
K:Bb
V:1 treble nm="Church Organ, Church Organ"
V:2 treble nm="French Horn, French Horn"
V:3 bass nm="Trombone, Trombone"
V:4 bass nm="Tuba, Tuba"
V:1
 dc BA | GG F2 | FG AB | c d3 | de d=B | GG c2 | cc c=B | =B c3 | FF GA | BB cB | cc GG | G G3 | %12
w: By~J.~W.~Lerman * * *||||||||||||
 GA BA | EG AG | ED GG | G G3 | FF GG | AA BA | Bc GG | G G3 | GB AB | GF FG | DE FG | A B3 |] %24
w: ||||||||||||
V:2
 FE DD | D[A,E] [A,E]2 | [A,E][A,E] [A,E][B,E] | [CE] [DF]3 | FF FF | FE E2 | E[EA] [EA][D_A] | %7
w: The~ bells~ are~ sweet|ly~ chim ing,~|Their~ mu sic~ fills~|the~ air;~|What~ mess age~ do~|they~ bring~ us~|Up on~ this~ morn|
 [D_A] [E=A]3 | ED DD | DD DD | DE EF | F E3 | E[CE] [CE][CE] | C[CE] [CE][CE] | %14
w: ing~ fair?~|"'Tis~ Christ mas~ day!"~|the~ glad~ bells~ say,~|"A~ Sa viour~ now~|is~ born,~|By~ God's~ great~ love~|send~ from~ a bove~|
 C[K:bass]B, [B,D][B,D] | [B,D] [B,D]3 | DD DD | DD DD | DE EF | F E3 | E_D DD | _D=D D[=B,D] | %22
w: To~ cheer~ the~ world~|for lorn."~|O~ won drous~ birth!~|let~ all~ the~ earth~|Re ceive~ the~ new|born~ King;~|Oh,~ let~ us~ now~|with~ sa cred~ vow~|
 [=B,D]C D[CE] | [CE] [DF]3 |] %24
w: Our~ loy al~ trib|ute~ bring.~|
V:3
 z B,, F,F,, | F,C, F,F,, | F,C, F,F,, | F,B,, D,F, | B,G,, G,G,, | G,C, E,G, | CF,, F,F,, | %7
 F,F,, A,,/C,/F, | F,B,, F,F,, | F,B,, F,F,, | F,E,, E,D,, | D,C,, E,,G,, | .C,2 F,F, | .F,2 F,F, | %14
 F,B,, F,F,, | F,B,, F,D, | B,,B,, F,F,, | F,B,, F,F,, | F,E,, E,D,, | D,C,, E,,G,, | %20
 C,=E,, =E,E,, | =E,[F,,F,] [_A,,_A,][G,,G,] | z C, G,F,, | F, [B,,F,]3 |] %24
V:4
 z4 | z4 | z4 | z4 | z4 | z4 | z4 | z4 | z4 | z4 | z4 | z4 | z F,,3- | F,, F,,3- | F,,2 z2 | z4 | %16
 z4 | z4 | z4 | z4 | z4 | z4 | z4 | z4 |] %24

